X:1
T:Violin Caprice No. 17 in E-Flat Major
T:Violin Caprice No. 17 in E-Flat Major
T:Op. 1, No. 17
T:Niccolò Paganini
C:Niccolò Paganini
%%score ( 1 2 )
L:1/8
Q:1/4=90
M:4/4
K:Eb
V:1 treble nm="Violin" snm="Vln."
V:2 treble 
V:1
"^Sostenuto" E/ | !fermata!E4 z2 !fermata!z3/2 [E_G]/ | !fermata![E_G]4 z2 !fermata!z3/2 [EG=A]/ | %3
 [E_G=A]2 [EGA]2 [EFA]2 [CFA]2 | %4
 !fermata![B,DB]4[Q:1/4=80] (!>!dB!>!fd!>!bf!>!d'b) !fermata!f'4[Q:1/4=80] (21:16:21(d'/4c'/4e'/4d'/4b/4=a/4c'/4b/4g/4f/4a/4g/4e/4d/4f/4e/4c/4B/4d/4c/4=A/4) (!fermata!TB4{!fermata!A!fermata!B)} b/ z/ b'/ z/ !fermata!B,4 z || %5
[M:4/4]S[Q:1/4=65]"^Andante" (11:8:11(!>!=a/4b/4e'/4c'/4b/4_a/4g/4f/4e/4d/4c/4 .B)(.[G,E].[A,F].[=A,^F]) | %6
 (!>![B,G][G,E]) (13:8:13(!>!b/4g'/4f'/4e'/4d'/4c'/4b/4a/4g/4f/4e/4d/4c/4 .B)(.[G,E].[A,F].[B,G]) | %7
 [G,E]2 :| (12:8:12(!>!b/4=a/4_a/4g/4_g/4f/4=e/4_e/4d/4_d/4c/4_c/4 .B)(.[B,D].[=CE].[^C=E]) | %9
 (!>![DF][B,D]) (13:8:13(!>!B/4c/4d/4e/4f/4g/4=a/4b/4c'/4d'/4e'/4f'/4g'/4 .f')(.[B,D].[CE].[DF]) | %10
 !>![B,D]2 (12:8:12(!>!b/4=a/4_a/4g/4_g/4f/4=e/4_e/4d/4_d/4c/4_c/4 .B)(.[B,D].[=CE].[^C=E]) | %11
 (!>![DF][B,D]) (13:8:13(!>!B/4c/4d/4e/4f/4g/4=a/4b/4c'/4d'/4e'/4f'/4g'/4 .f')(.[B,D].[CE].[DF]) | %12
 !>![B,D]2 (10:8:10(b/4=a/4_a/4g/4_g/4f/4=e/4_e/4d/4_d/4 .c)(.[C=E].[_DF].[=B,A]) | %13
 (!>![CG]=E) (10:8:10(b/4=a/4_a/4g/4_g/4f/4=e/4_e/4d/4_d/4 .c)(.[CE].[_DF].[=B,A]) | %14
 (!>![CG]=E) (10:8:10(a/4g/4_g/4f/4=e/4_e/4d/4_d/4c/4_c/4 .B)(.[B,D].[_C_E].[=A,_G]) | %15
 (!>![B,F]D) (10:8:10(a/4g/4_g/4f/4=e/4_e/4d/4_d/4c/4_c/4 .B)(.[B,D].[_CE].[=A,_G]) | %16
 (!>![B,F]D) (!>!e/4d/4_d/4c/4_c/4B/4G/4E/4 !>!e/4=d/4_d/4=c/4_c/4B/4A/4F/4 !>!e/4=d/4_d/4=c/4_c/4B/4A/4G/4 | %17
 e/4=d/4_d/4c/4_c/4B/4=A/4_A/4 e/4=d/4_d/4=c/4_c/4B/4=A/4=c/4) (e/4f/4=a/4c'/4a/4e'/4c'/4_g'/4 e'/4c'/4a/4_g/4e/4c/4A/4c/4) | %18
 (.B.[B,B]) (12:8:12(b/4=a/4_a/4g/4_g/4f/4=e/4_e/4d/4_d/4c/4_c/4) (.B.[B,B]) (12:8:12(d'/4^c'/4=c'/4=b/4_b/4=a/4_a/4=g/4_g/4f/4=e/4_e/4) | %19
 (.d.[B,B]) (37:24:37(f'/4=e'/4_e'/4d'/4_d'/4c'/4=b/4_b/4=a/4_a/4g/4_g/4f/4=e/4_e/4d/4_d/4c/4_c/4B/4=A/4_A/4G/4_G/4F/4=E/4_E/4D/4_D/4C/4_C/4B,/4=A,/4=C/4E/4_G/4A,/4) | %20
 (10:8:10(B,/4D/4F/4_A/4=A/4B/4d/4f/4_a/4=a/4) (10:8:10(b/4e'/4c'/4b/4_a/4g/4f/4e/4d/4c/4 .B)(.[G,E].[A,F].[=A,^F]) | %21
 (!>![B,G][G,E]) (13:8:13(b/4g'/4f'/4e'/4d'/4c'/4b/4a/4g/4f/4e/4d/4c/4 .B)(.[G,E].[A,F].[B,G]) | %22
 !>![G,E]2 (11:8:11(=a/4b/4e'/4c'/4b/4_a/4g/4f/4e/4d/4c/4 .B)(.[G,E].[A,F].[=A,^F]) | %23
 (!>![B,G][G,E]) (13:8:13(b/4g'/4f'/4e'/4d'/4c'/4b/4a/4g/4f/4e/4d/4c/4 .B).[G,E].[A,F].[B,Fd] | %24
 [G,Ee]2!fine! || %25
[Q:1/4=80]"^Minore" [Gg]>[Ee] ([Cc]/[=B,=B]/).[Cc]/.[Dd]/ ([Ee]/[Dd]/).[Ee]/.[Ff]/ | %26
 ([Gg]/[^F^f]/).[Gg]/.[=A=a]/ ([=B=b]/[Aa]/).[Bb]/.[Gg]/ ([cc']/[Bb]/).[cc']/.[dd']/ ([ee']/[dd']/).[ee']/.[=f=f']/ | %27
 [gg'][G,G] [gg']>[gg'] ([aa']/[gg']/)[aa']/.[dd']/ ([gg']/[^f^f']/[gg']/).[cc']/ | %28
 ([ff']/[=e=e']/[ff']/).[=B=b]/ ([_e_e']/[dd']/[ee']/).[cc']/ [cc']/[_B_b]/[Bb]/[Aa]/ [Aa]/[Gg]/[Gg]/[^F^f]/ | %29
 ([^F^f]/[Gg]/)[gg'] [Gg]>[Ee] ([Cc]/[=B,=B]/).[Cc]/.[Dd]/ ([Ee]/[Dd]/).[Ee]/.[=F=f]/ | %30
 ([Gg]/[^F^f]/).[Gg]/.[=A=a]/ ([=B=b]/[Aa]/).[Bb]/.[Gg]/ ([cc']/[Bb]/).[cc']/.[dd']/ ([ee']/[dd']/).[ee']/.[=f=f']/ | %31
 [gg'][G,G] [gg']>[gg'] ([aa']/[gg']/[aa']/).[dd']/ ([gg']/[^f^f']/[gg']/).[cc']/ | %32
 ([ff']/[=e=e']/[ff']/).[=B=b]/ ([_e_e']/[dd']/[ee']/).[cc']/ [_B_b]/[Aa]/[Gg]/[Ff]/ [Ee]/[Gg]/[Ff]/[Dd]/ | %33
 ([=B,=B]/[Cc]/).[cc'] |: [_B,_B]>[B,B] [B,B]/[=A,=A]/[B,B]/[Dd]/ [Ff]/[Bb]/[dd']/[ff']/ | %35
 ([_a_a']/[ff']/).[dd'] [_B,_B]>[B,B] [B,B]/[=A,=A]/[B,B]/[Dd]/ [Ff]/[Bb]/[dd']/[ff']/ | %36
 ([_a_a']/[ff']/).[cc'] [Cc]>[Cc] ([Cc]/[=B,=B]/).[Cc]/.[Dd]/ ([Ee]/[Dd]/).[Ee]/.[Ff]/ | %37
 ([Gg]/[^F^f]/).[Gg]/.[=A=a]/ ([=B=b]/[Aa]/).[Bb]/.[Gg]/ [cc']/[dd']/[ee']/[=f=f']/ [gg'][Gg] | %38
 ([=B=b]/[cc']/)[Cc] :| %39
[Q:1/4=65] (11:8:11(!>!=a/4b/4e'/4c'/4b/4_a/4g/4f/4e/4d/4c/4 .B)(.[G,E].[A,F].[=A,^F]) | %40
 (!>![B,G][G,E]) (13:8:13(!>!b/4g'/4f'/4e'/4d'/4c'/4b/4a/4g/4f/4e/4d/4c/4 .B)(.[G,E].[A,F].[B,G]) | %41
 !>![G,E]2!D.S.! || %42
V:2
 E/ | E4 x2 x3/2 x/ | x8 | x8 | x1241/40 ||[M:4/4] x361/60 | x8 | x2 :| x6 | x8 | x8 | x8 | x8 | %13
 x8 | x8 | x8 | x8 | x8 | x8 | x8 | x8 | x8 | x481/60 | x8 | x2 || x6 | x8 | x8 | x8 | x8 | x8 | %31
 x8 | x8 | x2 |: x6 | x8 | x8 | x8 | x2 :| x361/60 | x8 | x2 || %42

